X: 129
T: London Lassies
T: Reel, G
L: 1/16
M: C|
K: G
|: g4d2g2 g2e2d2B2| d2G2 G1G1G2 B2A2B2d2| g4b2g2 g2e2d2B2| d2e2d2B2 A4B2d2| 
g4b2g2 g2e2d2B2| d2e2d2B2 d2e2g4| b2a2b2g2 e2f2g2b2| g2e2d2B2 A2G2E2F2:| 
|: G4B2G2 d2G2B2G2| D2b2a2g2 e2f2g4| G4B2G2 d2G2B2a2| g2e2d2B2 A2G2E2F2| 
G4B2G2 d2G2B2G2| D2b2a2g2 e2f2g4| b2a2b2g2 e2f2g2b2| g2e2d2B2 A2G2E2F2:| 
D: Stephanie Wills, Tradition Continued, STEPH 1-94
D: Donny LeBlanc, Rosining Up the Bow
